src/apps/scalable/lact.svg

<svg width="64" xmlns="http://www.w3.org/2000/svg" height="64" id="screenshot-77f2ae63-0885-8083-8007-05e9dc3f91d0" viewBox="0 0 64 64" xmlns:xlink="http://www.w3.org/1999/xlink" fill="none" version="1.1"><g id="shape-77f2ae63-0885-8083-8007-05e9dc3f91d0" width="64" height="64" version="1.1" xmlns:xlink="http://www.w3.org/1999/xlink" rx="0" ry="0" style="fill: rgb(0, 0, 0);"><g id="shape-77f2ae63-0885-8083-8007-05e9dc3f91d1" style="display: none;"><g class="fills" id="fills-77f2ae63-0885-8083-8007-05e9dc3f91d1"><rect width="64" height="64" x="0" transform="matrix(1.000000, 0.000000, 0.000000, 1.000000, 0.000000, 0.000000)" style="fill: none;" ry="0" fill="none" rx="0" y="0"/></g></g><g id="shape-77f2ae63-0885-8083-8007-05e9dc3f91d2"><defs style="fill: rgb(0, 0, 0);"/></g><g id="shape-77f2ae63-0885-8083-8007-05e9dc3f91d3"><defs><pattern patternUnits="userSpaceOnUse" x="1.5592999999998938" y="1.9990000000000236" width="60.88200000000006" height="62.001000000000005" id="fill-0-render-4"><g><image id="fill-image-render-4-0" href="http://localhost:6080/assets/by-file-media-id/1c096c09-a10e-80c0-8003-2a94e3380417" preserveAspectRatio="none" width="60.88200000000006" height="62.001000000000005"/></g></pattern></defs><g class="fills" id="fills-77f2ae63-0885-8083-8007-05e9dc3f91d3"><rect width="60.88200000000006" height="62.001000000000005" x="1.5592999999998938" transform="matrix(1.000000, 0.000000, 0.000000, 1.000000, 0.000000, 0.000000)" preserveAspectRatio="none" ry="0" fill="url(#fill-0-render-4)" rx="0" y="1.9990000000000236"/></g></g><g id="shape-77f2ae63-0885-8083-8007-05e9dc3f91d4"><defs><linearGradient x1="7.9373" y1="15.081" x2="7.9373" y2="1.852" id="render-5-linearGradient1040" gradientTransform="matrix(1.000000, 0.000000, 0.000000, 1.000000, 0.000000, 0.000000) scale(3.7796)" gradientUnits="userSpaceOnUse"><stop stop-color="#363636" offset="0"/><stop stop-color="#6c6c6c" offset="1"/></linearGradient></defs><g class="fills" id="fills-77f2ae63-0885-8083-8007-05e9dc3f91d4"><rect width="56.00199999999995" height="56.00200000000001" x="4" transform="matrix(1.000000, 0.000000, 0.000000, 1.000000, 0.000000, 0.000000)" style="fill: rgb(255, 255, 255); fill-opacity: 1;" ry="13.002" fill="url(#render-5-linearGradient1040)" rx="13.002" y="3.9686000000000092"/></g></g><g id="shape-77f2ae63-0885-8083-8007-05e999a62d17" rx="0" ry="0"><g id="shape-77f2ae63-0885-8083-8007-05e999a62d18"><defs><linearGradient id="fill-color-gradient-render-7-0" x1="0.999572405229801" y1="0.8774703444921169" x2="0.0831940506069187" y2="-0.0023080239052694685" gradientTransform=""><stop offset="0" stop-color="#5f5f5f" stop-opacity="1"/><stop offset="1" stop-color="#a9a9a9" stop-opacity="1"/></linearGradient><pattern patternUnits="userSpaceOnUse" x="14.788113272311193" y="18.45440000000002" width="37.963386727688885" height="25.108626198083087" id="fill-0-render-7"><g><rect width="37.963386727688885" height="25.108626198083087" style="fill: url(&quot;#fill-color-gradient-render-7-0&quot;);"/></g></pattern></defs><g class="fills" id="fills-77f2ae63-0885-8083-8007-05e999a62d18"><path d="M14.788113272311193,18.45440000000002 h37.963386727688885 a0,0 0 0 1 0,0 v19.108626198083087 a6,6 0 0 1 -6,6 h-31.963386727688885 a0,0 0 0 1 0,0 v-25.108626198083087 a0,0 0 0 1 0,0 z" x="14.788113272311193" y="18.45440000000002" transform="matrix(1.000000, 0.000000, 0.000000, 1.000000, 0.000000, 0.000000)" width="37.963386727688885" height="25.108626198083087" fill="url(#fill-0-render-7)"/></g></g><g id="shape-77f2ae63-0885-8083-8007-05e999a62d19"><defs><linearGradient id="fill-color-gradient-render-8-0" x1="0.9932174866184859" y1="0.0054895747200806085" x2="0.0041410320068972" y2="0.9973603970744849" gradientTransform=""><stop offset="0" stop-color="#2c2c2c" stop-opacity="1"/><stop offset="1" stop-color="#858585" stop-opacity="1"/></linearGradient><pattern patternUnits="userSpaceOnUse" x="25.648525171624897" y="43.563026198083094" width="17.059496567505448" height="3.891373801916913" id="fill-0-render-8"><g><rect width="17.059496567505448" height="3.891373801916913" style="fill: url(&quot;#fill-color-gradient-render-8-0&quot;);"/></g></pattern></defs><g class="fills" id="fills-77f2ae63-0885-8083-8007-05e999a62d19"><path d="M25.648525171624897,43.563026198083094 h17.059496567505448 a0,0 0 0 1 0,0 v0.8913738019169131 a3,3 0 0 1 -3,3 h-14.059496567505448 a0,0 0 0 1 0,0 v-3.891373801916913 a0,0 0 0 1 0,0 z" x="25.648525171624897" y="43.563026198083094" transform="matrix(1.000000, 0.000000, 0.000000, 1.000000, 0.000000, 0.000000)" width="17.059496567505448" height="3.891373801916913" fill="url(#fill-0-render-8)"/></g></g><g id="shape-77f2ae63-0885-8083-8007-05ea9059c899"><defs><linearGradient id="fill-color-gradient-render-9-0" x1="-0.20692454727590562" y1="-0.011922555729953913" x2="0.49793279340045565" y2="0.9560249135835565" gradientTransform=""><stop offset="0" stop-color="#858585" stop-opacity="1"/><stop offset="0.92" stop-color="#2c2c2c" stop-opacity="1"/></linearGradient><pattern patternUnits="userSpaceOnUse" x="11.250500000000102" y="18.45440000000002" width="3.5376132723110914" height="29.030399999999986" id="fill-0-render-9"><g><rect width="3.5376132723110914" height="29.030399999999986" style="fill: url(&quot;#fill-color-gradient-render-9-0&quot;);"/></g></pattern></defs><g class="fills" id="fills-77f2ae63-0885-8083-8007-05ea9059c899"><path d="M11.250500000000102,18.45440000000002 h3.5376132723110914 a0,0 0 0 1 0,0 v26.030399999999986 a3,3 0 0 1 -3,3 h-0.5376132723110914 a0,0 0 0 1 0,0 v-29.030399999999986 a0,0 0 0 1 0,0 z" x="11.250500000000102" y="18.45440000000002" transform="matrix(1.000000, 0.000000, 0.000000, 1.000000, 0.000000, 0.000000)" width="3.5376132723110914" height="29.030399999999986" fill="url(#fill-0-render-9)"/></g></g><g id="shape-77f2ae63-0885-8083-8007-05e999a62d1b"><defs><linearGradient id="fill-color-gradient-render-10-0" x1="0.9936498260202428" y1="0.9887221275222902" x2="-0.0017380728183496181" y2="0.004540859446222406" gradientTransform=""><stop offset="0" stop-color="#282828" stop-opacity="1"/><stop offset="0.88" stop-color="#858585" stop-opacity="1"/></linearGradient><pattern patternUnits="userSpaceOnUse" x="18.68056178489678" y="25.125326517571864" width="9.034324942791955" height="3.984025559105433" id="fill-0-render-10"><g><rect width="9.034324942791955" height="3.984025559105433" style="fill: url(&quot;#fill-color-gradient-render-10-0&quot;);"/></g></pattern></defs><g class="fills" id="fills-77f2ae63-0885-8083-8007-05e999a62d1b"><path d="M20.68056178489678,25.125326517571864 h7.0343249427919545 a0,0 0 0 1 0,0 v1.984025559105433 a2,2 0 0 1 -2,2 h-7.0343249427919545 a0,0 0 0 1 0,0 v-1.984025559105433 a2,2 0 0 1 2,-2 z" x="18.68056178489678" y="25.125326517571864" transform="matrix(1.000000, 0.000000, 0.000000, 1.000000, 0.000000, 0.000000)" width="9.034324942791955" height="3.984025559105433" fill="url(#fill-0-render-10)"/></g></g><g id="shape-77f2ae63-0885-8083-8007-05e999a62d1c"><defs><linearGradient id="fill-color-gradient-render-11-0" x1="0.9936498260202428" y1="0.9887221275222902" x2="-0.0017380728183496181" y2="0.004540859446222406" gradientTransform=""><stop offset="0" stop-color="#282828" stop-opacity="1"/><stop offset="0.88" stop-color="#858585" stop-opacity="1"/></linearGradient><pattern patternUnits="userSpaceOnUse" x="18.68056178489678" y="32.86174824281149" width="9.034324942791955" height="3.984025559105447" id="fill-0-render-11"><g><rect width="9.034324942791955" height="3.984025559105447" style="fill: url(&quot;#fill-color-gradient-render-11-0&quot;);"/></g></pattern></defs><g class="fills" id="fills-77f2ae63-0885-8083-8007-05e999a62d1c"><path d="M20.68056178489678,32.86174824281149 h7.0343249427919545 a0,0 0 0 1 0,0 v1.9840255591054472 a2,2 0 0 1 -2,2 h-7.0343249427919545 a0,0 0 0 1 0,0 v-1.9840255591054472 a2,2 0 0 1 2,-2 z" x="18.68056178489678" y="32.86174824281149" transform="matrix(1.000000, 0.000000, 0.000000, 1.000000, 0.000000, 0.000000)" width="9.034324942791955" height="3.984025559105447" fill="url(#fill-0-render-11)"/></g></g><g id="shape-77f2ae63-0885-8083-8007-05e999a62d1d"><defs><linearGradient id="fill-color-gradient-render-12-0" x1="0.9398532825970046" y1="0.8228437512734832" x2="0.12643878804410935" y2="0.13282140979487583" gradientTransform=""><stop offset="0" stop-color="#181818" stop-opacity="1"/><stop offset="1" stop-color="#787878" stop-opacity="1"/></linearGradient><pattern patternUnits="userSpaceOnUse" x="31.655390160183288" y="23.225965495207674" width="16.14645308924446" height="15.56549520766778" patternTransform="matrix(1.000000, 0.000000, 0.000000, 1.000000, 0.000000, 0.000000)" id="fill-0-render-12"><g><rect width="16.14645308924446" height="15.56549520766778" style="fill: url(&quot;#fill-color-gradient-render-12-0&quot;);"/></g></pattern></defs><g class="fills" id="fills-77f2ae63-0885-8083-8007-05e999a62d1d"><path d="M39.7286376953125,23.225967407226562C44.184326171875,23.225967407226562,47.8018798828125,26.713294982910156,47.8018798828125,31.008712768554688C47.8018798828125,35.30413055419922,44.184326171875,38.79145812988281,39.7286376953125,38.79145812988281C35.2728271484375,38.79145812988281,31.6553955078125,35.30413055419922,31.6553955078125,31.008712768554688C31.6553955078125,26.713294982910156,35.2728271484375,23.225967407226562,39.7286376953125,23.225967407226562M39.752685546875,28.136505126953125C38.094970703125,28.136505126953125,36.749267578125,29.433876037597656,36.749267578125,31.031875610351562C36.749267578125,32.62987518310547,38.094970703125,33.92724609375,39.752685546875,33.92724609375C41.4102783203125,33.92724609375,42.756103515625,32.62987518310547,42.756103515625,31.031875610351562C42.756103515625,29.433876037597656,41.4102783203125,28.136505126953125,39.752685546875,28.136505126953125" fill="url(#fill-0-render-12)"/></g></g></g></g></svg>

<svg xmlns="http://www.w3.org/2000/svg" width="64" height="64" fill="none" viewBox="0 0 64 64"><g xmlns:xlink="http://www.w3.org/1999/xlink" style="fill:#000"><defs><pattern id="a" width="60.882" height="62.001" x="1.559" y="1.999" patternUnits="userSpaceOnUse"><image width="60.882" height="62.001" href="http://localhost:6080/assets/by-file-media-id/1c096c09-a10e-80c0-8003-2a94e3380417" preserveAspectRatio="none"/></pattern></defs><rect width="60.882" height="62.001" x="1.559" y="1.999" fill="url(#a)" class="fills" rx="0" ry="0"/><defs><linearGradient id="b" x1="7.937" x2="7.937" y1="15.081" y2="1.852" gradientTransform="scale(3.7796)" gradientUnits="userSpaceOnUse"><stop offset="0" stop-color="#363636"/><stop offset="1" stop-color="#6c6c6c"/></linearGradient></defs><rect width="56.002" height="56.002" x="4" y="3.969" fill="url(#b)" class="fills" rx="13.002" ry="13.002" style="fill:#fff;fill-opacity:1"/><defs><linearGradient id="c" x1="1" x2=".083" y1=".877" y2="-.002"><stop offset="0" stop-color="#5f5f5f"/><stop offset="1" stop-color="#a9a9a9"/></linearGradient><pattern id="d" width="37.963" height="25.109" x="14.788" y="18.454" patternUnits="userSpaceOnUse"><path d="M0 0h37.963v25.109H0z" style="fill:url(#c)"/></pattern></defs><path fill="url(#d)" d="M14.788 18.454h37.964v19.109a6 6 0 0 1-6 6H14.788z" class="fills"/><defs><linearGradient id="e" x1=".993" x2=".004" y1=".005" y2=".997"><stop offset="0" stop-color="#2c2c2c"/><stop offset="1" stop-color="#858585"/></linearGradient><pattern id="f" width="17.059" height="3.891" x="25.649" y="43.563" patternUnits="userSpaceOnUse"><path d="M0 0h17.059v3.891H0z" style="fill:url(#e)"/></pattern></defs><path fill="url(#f)" d="M25.649 43.563h17.059v.891a3 3 0 0 1-3 3h-14.06z" class="fills"/><defs><linearGradient id="g" x1="-.207" x2=".498" y1="-.012" y2=".956"><stop offset="0" stop-color="#858585"/><stop offset=".92" stop-color="#2c2c2c"/></linearGradient><pattern id="h" width="3.538" height="29.03" x="11.251" y="18.454" patternUnits="userSpaceOnUse"><path d="M0 0h3.538v29.03H0z" style="fill:url(#g)"/></pattern></defs><path fill="url(#h)" d="M11.25 18.454h3.538v26.03a3 3 0 0 1-3 3h-.537z" class="fills"/><defs><linearGradient id="i" x1=".994" x2="-.002" y1=".989" y2=".005"><stop offset="0" stop-color="#282828"/><stop offset=".88" stop-color="#858585"/></linearGradient><pattern id="j" width="9.034" height="3.984" x="18.681" y="25.125" patternUnits="userSpaceOnUse"><path d="M0 0h9.034v3.984H0z" style="fill:url(#i)"/></pattern></defs><path fill="url(#j)" d="M20.68 25.125h7.035v1.984a2 2 0 0 1-2 2H18.68v-1.984a2 2 0 0 1 2-2" class="fills"/><defs><linearGradient id="k" x1=".994" x2="-.002" y1=".989" y2=".005"><stop offset="0" stop-color="#282828"/><stop offset=".88" stop-color="#858585"/></linearGradient><pattern id="l" width="9.034" height="3.984" x="18.681" y="32.862" patternUnits="userSpaceOnUse"><path d="M0 0h9.034v3.984H0z" style="fill:url(#k)"/></pattern></defs><path fill="url(#l)" d="M20.68 32.862h7.035v1.984a2 2 0 0 1-2 2H18.68v-1.984a2 2 0 0 1 2-2" class="fills"/><defs><linearGradient id="m" x1=".94" x2=".126" y1=".823" y2=".133"><stop offset="0" stop-color="#181818"/><stop offset="1" stop-color="#787878"/></linearGradient><pattern id="n" width="16.146" height="15.565" x="31.655" y="23.226" patternUnits="userSpaceOnUse"><path d="M0 0h16.146v15.565H0z" style="fill:url(#m)"/></pattern></defs><path fill="url(#n)" d="M39.729 23.226c4.455 0 8.073 3.487 8.073 7.783 0 4.295-3.618 7.782-8.073 7.782-4.456 0-8.074-3.487-8.074-7.782 0-4.296 3.618-7.783 8.074-7.783m.024 4.91c-1.658 0-3.004 1.298-3.004 2.896s1.346 2.895 3.004 2.895 3.003-1.297 3.003-2.895-1.346-2.895-3.003-2.895" class="fills"/></g></svg>
